Obsidian-SemiLight/actions/16s/align-vertical-baseline.svg

<svg viewBox="0 0 16 16" xmlns="http://www.w3.org/2000/svg"><path d="m3.4941406 3c.21739 1.45492.800815 3.1066031 2.078125 4.5019531-.3461465.532877-.6049652.9957697-1.0117187 1.4980469h-2.5605469v1h1.578125c-.3871203.329411-.869946.6938-1.4960938 1.113281l.828125.988281c.9544377-.70757 1.7194763-1.406759 2.3710938-2.101562h8.71875v-1h-7.8671875c1.5511277-2.0032295 2.1887712-3.9790063 2.8671875-6h-1.21875c-.4129 1.23004-.72519 2.2563125-1.4375 3.3828125-1.02003-1.15879-1.3346714-2.1455425-1.5195312-3.3828125zm8.3867184 0c-.867587.0182-1.53334.1551085-2.0175778.3554688l.2734378.9003906c.232028-.0729001 1.108547-.3261719 1.623047-.3261719h.072265c.716266.0273.765625.2628086.765625.8183594v.21875l-.373047.0546875c-1.735185.2276903-2.6640621.418902-2.6640621 1.6210937 0 .8378912.6757301 1.3574219 1.6542971 1.3574219.675912 0 1.120254-.255482 1.574218-.6015625l.140626.5097656h1.070312v-3.3691406c0-1.0291414-.787452-1.5390625-1.998047-1.5390625zm.716797 2.6777344v1.1210937c-.373258.2276903-.656387.390625-1.140625.390625-.433793 0-.644531-.2457164-.644531-.5917969 0-.6557409.635308-.7650542 1.412109-.8652343z" fill="#4d4d4d"/></svg>

<svg xmlns="http://www.w3.org/2000/svg" viewBox="0 0 16 16">
  <defs id="defs3051">
    <style type="text/css" id="current-color-scheme">
      .ColorScheme-Text {
        color:#4d4d4d;
      }
      </style>
  </defs>
 <path style="fill:currentColor;fill-opacity:1;stroke:none" 
       d="M 3.4941406 3 C 3.7115306 4.45492 4.2949556 6.1066031 5.5722656 7.5019531 C 5.2261191 8.0348301 4.9673004 8.4977228 4.5605469 9 L 2 9 L 2 10 L 3.578125 10 C 3.1910047 10.329411 2.708179 10.6938 2.0820312 11.113281 L 2.9101562 12.101562 C 3.8645939 11.393992 4.6296325 10.694803 5.28125 10 L 14 10 L 14 9 L 6.1328125 9 C 7.6839402 6.9967705 8.3215837 5.0209937 9 3 L 7.78125 3 C 7.36835 4.23004 7.05606 5.2563125 6.34375 6.3828125 C 5.32372 5.2240225 5.0090786 4.23727 4.8242188 3 L 3.4941406 3 z M 11.880859 3 C 11.013272 3.0182 10.347519 3.1551085 9.8632812 3.3554688 L 10.136719 4.2558594 C 10.368747 4.1829593 11.245266 3.9296875 11.759766 3.9296875 L 11.832031 3.9296875 C 12.548297 3.9569875 12.597656 4.1924961 12.597656 4.7480469 L 12.597656 4.9667969 L 12.224609 5.0214844 C 10.489424 5.2491747 9.5605469 5.4403864 9.5605469 6.6425781 C 9.5605469 7.4804693 10.236277 8 11.214844 8 C 11.890756 8 12.335098 7.744518 12.789062 7.3984375 L 12.929688 7.9082031 L 14 7.9082031 L 14 4.5390625 C 14 3.5099211 13.212548 3 12.001953 3 L 11.880859 3 z M 12.597656 5.6777344 L 12.597656 6.7988281 C 12.224398 7.0265184 11.941269 7.1894531 11.457031 7.1894531 C 11.023238 7.1894531 10.8125 6.9437367 10.8125 6.5976562 C 10.8125 5.9419153 11.447808 5.832602 12.224609 5.7324219 L 12.597656 5.6777344 z "
     class="ColorScheme-Text"
     />
</svg>
